src/shared/assets/icons/home-category/ic-tour.svg

<svg width="100%" height="100%" viewBox="0 0 120 120" fill="none" xmlns="http://www.w3.org/2000/svg">
<path d="M29.957 83.9977C31.0036 77.7182 31.5269 74.5785 33.3438 72.3872C34.1346 71.4335 35.0872 70.6265 36.1579 70.0032C38.6182 68.5713 41.8012 68.5713 48.1673 68.5713H78.4271C84.7931 68.5713 87.9758 68.5713 90.4367 70.0032C91.5072 70.6265 92.4595 71.4335 93.2507 72.3872C95.0678 74.5785 95.5907 77.7182 96.6372 83.9977C98.0515 92.4804 98.7578 96.7224 97.0958 99.8707C96.3801 101.226 95.3781 102.409 94.1592 103.337C91.3272 105.494 87.0269 105.494 78.4271 105.494H48.1673C39.5671 105.494 35.2671 105.494 32.4348 103.337C31.2161 102.409 30.2141 101.226 29.4987 99.8707C27.8363 96.7224 28.5432 92.4804 29.957 83.9977Z" fill="url(#paint0_linear_68_50529)"/>
<foreignObject x="24.5713" y="3.47267" width="77.4502" height="98.5488"><div xmlns="http://www.w3.org/1999/xhtml" style="backdrop-filter:blur(6.15px);clip-path:url(#bgblur_0_68_50529_clip_path);height:100%;width:100%"></div></foreignObject><path data-figma-bg-blur-radius="12.3076" d="M63.2967 16.0879C77.7008 16.0881 89.4064 28.5487 89.4064 43.9559C89.4064 51.6739 86.4681 63.0615 81.7094 72.5204C79.331 77.2479 76.5054 81.4783 73.3782 84.5229C70.2496 87.5689 66.8431 89.4057 63.2967 89.4066C59.7502 89.4066 56.3432 87.5689 53.2144 84.5229C50.0872 81.4783 47.2616 77.2479 44.8832 72.5204C40.1245 63.0615 37.1865 51.6739 37.1865 43.9559C37.1865 28.5486 48.8925 16.0879 63.2967 16.0879Z" fill="#FFB7B5" fill-opacity="0.6" stroke="url(#paint1_linear_68_50529)" stroke-width="0.615382"/>
<path d="M63.296 52.4845C68.9774 52.4845 73.5831 47.8788 73.5831 42.1973C73.5831 36.5159 68.9774 31.9102 63.296 31.9102C57.6145 31.9102 53.0088 36.5159 53.0088 42.1973C53.0088 47.8788 57.6145 52.4845 63.296 52.4845Z" fill="url(#paint2_linear_68_50529)" fill-opacity="0.9" stroke="url(#paint3_linear_68_50529)" stroke-width="0.611895"/>
<defs>
<clipPath id="bgblur_0_68_50529_clip_path" transform="translate(-24.5713 -3.47267)"><path d="M63.2967 16.0879C77.7008 16.0881 89.4064 28.5487 89.4064 43.9559C89.4064 51.6739 86.4681 63.0615 81.7094 72.5204C79.331 77.2479 76.5054 81.4783 73.3782 84.5229C70.2496 87.5689 66.8431 89.4057 63.2967 89.4066C59.7502 89.4066 56.3432 87.5689 53.2144 84.5229C50.0872 81.4783 47.2616 77.2479 44.8832 72.5204C40.1245 63.0615 37.1865 51.6739 37.1865 43.9559C37.1865 28.5486 48.8925 16.0879 63.2967 16.0879Z"/>
</clipPath><linearGradient id="paint0_linear_68_50529" x1="39.6837" y1="95.6939" x2="90.4744" y2="134.141" gradientUnits="userSpaceOnUse">
<stop stop-color="#FF6161"/>
<stop offset="1" stop-color="#F52828"/>
</linearGradient>
<linearGradient id="paint1_linear_68_50529" x1="63.2964" y1="15.8242" x2="89.6695" y2="94.9446" gradientUnits="userSpaceOnUse">
<stop stop-color="white"/>
<stop offset="0.76944" stop-color="white" stop-opacity="0"/>
</linearGradient>
<linearGradient id="paint2_linear_68_50529" x1="57.1678" y1="37.7624" x2="88.6368" y2="46.1541" gradientUnits="userSpaceOnUse">
<stop stop-color="white"/>
<stop offset="1" stop-color="white" stop-opacity="0"/>
</linearGradient>
<linearGradient id="paint3_linear_68_50529" x1="58.2168" y1="35.14" x2="70.2799" y2="48.7765" gradientUnits="userSpaceOnUse">
<stop stop-color="white"/>
<stop offset="1" stop-color="white" stop-opacity="0"/>
</linearGradient>
</defs>
</svg>

<svg xmlns="http://www.w3.org/2000/svg" fill="none" viewBox="0 0 120 120"><path fill="url(#a)" d="M29.957 83.998c1.047-6.28 1.57-9.42 3.387-11.61a10.5 10.5 0 0 1 2.814-2.385c2.46-1.432 5.643-1.432 12.01-1.432h30.26c6.365 0 9.548 0 12.009 1.432 1.07.623 2.023 1.43 2.814 2.384 1.817 2.192 2.34 5.331 3.386 11.61 1.415 8.483 2.12 12.725.459 15.874a10.55 10.55 0 0 1-2.937 3.466c-2.832 2.157-7.132 2.157-15.732 2.157h-30.26c-8.6 0-12.9 0-15.732-2.157a10.5 10.5 0 0 1-2.936-3.466c-1.663-3.149-.956-7.39.458-15.873"/><foreignObject width="77.45" height="98.549" x="24.571" y="3.473"><div xmlns="http://www.w3.org/1999/xhtml" style="backdrop-filter:blur(6.15px);clip-path:url(#b);height:100%;width:100%"/></foreignObject><path fill="#ffb7b5" fill-opacity=".6" stroke="url(#c)" stroke-width=".615" d="M63.297 16.088c14.404 0 26.11 12.46 26.11 27.868 0 7.718-2.939 19.106-7.698 28.564-2.378 4.728-5.204 8.958-8.33 12.003-3.13 3.046-6.536 4.883-10.082 4.884-3.547 0-6.954-1.838-10.083-4.884-3.127-3.045-5.952-7.275-8.33-12.003-4.76-9.458-7.697-20.846-7.697-28.564 0-15.407 11.706-27.868 26.11-27.868Z" data-figma-bg-blur-radius="12.308"/><path fill="url(#d)" fill-opacity=".9" stroke="url(#e)" stroke-width=".612" d="M63.296 52.485c5.681 0 10.287-4.606 10.287-10.288 0-5.681-4.606-10.287-10.287-10.287s-10.287 4.606-10.287 10.287 4.605 10.287 10.287 10.287Z"/><defs><linearGradient id="a" x1="39.684" x2="90.474" y1="95.694" y2="134.141" gradientUnits="userSpaceOnUse"><stop stop-color="#ff6161"/><stop offset="1" stop-color="#f52828"/></linearGradient><linearGradient id="c" x1="63.296" x2="89.669" y1="15.824" y2="94.945" gradientUnits="userSpaceOnUse"><stop stop-color="#fff"/><stop offset=".769" stop-color="#fff" stop-opacity="0"/></linearGradient><linearGradient id="d" x1="57.168" x2="88.637" y1="37.762" y2="46.154" gradientUnits="userSpaceOnUse"><stop stop-color="#fff"/><stop offset="1" stop-color="#fff" stop-opacity="0"/></linearGradient><linearGradient id="e" x1="58.217" x2="70.28" y1="35.14" y2="48.776" gradientUnits="userSpaceOnUse"><stop stop-color="#fff"/><stop offset="1" stop-color="#fff" stop-opacity="0"/></linearGradient><clipPath id="b" transform="translate(-24.571 -3.473)"><path d="M63.297 16.088c14.404 0 26.11 12.46 26.11 27.868 0 7.718-2.939 19.106-7.698 28.564-2.378 4.728-5.204 8.958-8.33 12.003-3.13 3.046-6.536 4.883-10.082 4.884-3.547 0-6.954-1.838-10.083-4.884-3.127-3.045-5.952-7.275-8.33-12.003-4.76-9.458-7.697-20.846-7.697-28.564 0-15.407 11.706-27.868 26.11-27.868"/></clipPath></defs></svg>
